res/full-logo.svg

<svg width="160" height="228" viewBox="0 0 160 228" fill="none" xmlns="http://www.w3.org/2000/svg">
<g id="Full Logo">
<rect id="Rectangle" x="3" y="2.38867" width="154" height="152" fill="#090909"/>
<g id="LogoGridStars">
<path id="wormhole" fill-rule="evenodd" clip-rule="evenodd" d="M156.398 151.649C123.287 151.067 95.2564 129.333 85.2639 99.4087L80.0039 96.7531L74.6479 99.4819C64.6342 129.369 36.6238 151.067 3.53986 151.649V3.48441C39.1879 4.11228 68.9466 29.2556 76.6479 62.7427L77.2787 61.3948L79.9519 55.6825L82.6529 61.3816L83.2925 62.7325C90.9974 29.2505 120.753 4.11228 156.398 3.48441V151.649ZM110.614 151.684C108.175 149.941 102.168 145.131 96.2055 136.324C95.1503 134.764 94.0643 133.025 92.982 131.108H101.742C111.414 140.809 123.579 148.017 137.185 151.684H110.614ZM82.0507 98.3023C85.6854 110.215 92.0541 120.941 100.432 129.749H92.2298C88.0893 122.079 84.0916 111.715 82.0507 98.3023ZM90.7691 129.749H80.9881V100.143C83.0239 112.294 86.6777 122.07 90.7691 129.749ZM80.9881 151.684V131.108H91.5207C97.713 142.22 104.67 148.729 108.386 151.684H80.9881ZM78.9494 129.749H69.2459C73.1471 122.368 76.8711 112.627 78.9494 100.244V129.749ZM78.9494 151.684H51.6041C54.6066 149.329 59.6793 144.716 64.8099 137.156C66.0202 135.371 67.2701 133.355 68.5112 131.108H78.9494V151.684ZM59.5066 129.749C67.8724 120.952 74.2359 110.242 77.8722 98.3476C75.8708 111.438 71.9645 121.769 67.6228 129.749H59.5066ZM22.7521 151.684C36.3581 148.017 48.5233 140.809 58.1953 131.108H66.8749C59.9457 143.287 52.1661 149.627 49.3144 151.684H22.7521ZM49.3246 3.45002C51.7644 5.19386 57.7708 10.0039 63.7319 18.8109C64.7879 20.3696 65.8731 22.109 66.9562 24.0256H58.1953C48.5233 14.325 36.3581 7.11625 22.7521 3.45002H49.3246ZM77.8861 56.8321C74.2521 44.9187 67.8833 34.193 59.5066 25.3852H67.7077C71.8481 33.055 75.8459 43.4193 77.8861 56.8321ZM69.1684 25.3852H79.2889V57.0143C77.335 43.9066 73.4873 33.4904 69.1684 25.3852ZM79.2889 3.45002V24.0256H68.4168C62.2252 12.9134 55.2674 6.40496 51.5529 3.45002H79.2889ZM80.6478 25.3852H90.6916C86.5672 33.1875 82.6405 43.6278 80.6478 57.0392V25.3852ZM80.6478 3.45002H108.334C105.332 5.80563 100.258 10.4173 95.1269 17.9781C93.9165 19.7622 92.6674 21.779 91.4255 24.0256H80.6478V3.45002ZM100.432 25.3852C92.0651 34.182 85.7023 44.8916 82.0653 56.786C84.0667 43.6959 87.973 33.3646 92.3154 25.3852H100.432ZM137.185 3.45002C123.579 7.11625 111.414 14.325 101.742 24.0256H93.0625C99.9925 11.8472 107.771 5.50706 110.623 3.45002H137.185ZM0.821289 154.402H159.115V0.731445H0.821289V154.402Z" fill="#49FF5E"/>
<g id="stars">
<path id="Fill 11" fill-rule="evenodd" clip-rule="evenodd" d="M11.2998 77.6155L11.9599 75.6631L12.6199 77.6155L14.5731 78.2756L12.6199 78.9356L11.9599 80.888L11.2998 78.9356L9.34668 78.2756L11.2998 77.6155Z" fill="white"/>
<path id="Fill 12" fill-rule="evenodd" clip-rule="evenodd" d="M38.5479 104.616L39.2072 102.663L39.8673 104.616L41.8204 105.276L39.8673 105.936L39.2072 107.889L38.5479 105.936L36.5947 105.276L38.5479 104.616Z" fill="white"/>
<path id="Fill 13" fill-rule="evenodd" clip-rule="evenodd" d="M51.0439 73.0022L51.704 71.0498L52.3641 73.0022L54.3172 73.6623L52.3641 74.3223L51.704 76.2747L51.0439 74.3223L49.0908 73.6623L51.0439 73.0022Z" fill="white"/>
<path id="Fill 14" fill-rule="evenodd" clip-rule="evenodd" d="M21.9033 22.8508L22.5634 20.8984L23.2235 22.8508L25.1766 23.5109L23.2235 24.171L22.5634 26.1234L21.9033 24.171L19.9502 23.5109L21.9033 22.8508Z" fill="white"/>
<path id="Fill 15" fill-rule="evenodd" clip-rule="evenodd" d="M22.2197 132.765L22.8791 130.812L23.5399 132.765L25.4923 133.425L23.5399 134.084L22.8791 136.037L22.2197 134.084L20.2666 133.425L22.2197 132.765Z" fill="white"/>
<path id="Fill 16" fill-rule="evenodd" clip-rule="evenodd" d="M28.6651 101.392L29.0193 100.341L29.3749 101.392L30.425 101.747L29.3749 102.101L29.0193 103.152L28.6651 102.101L27.6143 101.747L28.6651 101.392Z" fill="white"/>
<path id="Fill 17" fill-rule="evenodd" clip-rule="evenodd" d="M47.4747 78.6216L47.8296 77.5708L48.1845 78.6216L49.2346 78.9766L48.1845 79.3315L47.8296 80.3823L47.4747 79.3315L46.4238 78.9766L47.4747 78.6216Z" fill="white"/>
<path id="Fill 18" fill-rule="evenodd" clip-rule="evenodd" d="M31.6358 50.9019L31.99 49.8511L32.3456 50.9019L33.3957 51.2568L32.3456 51.6117L31.99 52.6626L31.6358 51.6117L30.585 51.2568L31.6358 50.9019Z" fill="white"/>
<path id="Fill 19" fill-rule="evenodd" clip-rule="evenodd" d="M139.545 30.1114L139.9 29.0605L140.256 30.1114L141.306 30.4663L140.256 30.8212L139.9 31.8721L139.545 30.8212L138.494 30.4663L139.545 30.1114Z" fill="white"/>
<path id="Fill 20" fill-rule="evenodd" clip-rule="evenodd" d="M51.7911 38.5342L52.146 37.4834L52.5016 38.5342L53.5517 38.8892L52.5016 39.2441L52.146 40.2949L51.7911 39.2441L50.7402 38.8892L51.7911 38.5342Z" fill="white"/>
<path id="Fill 21" fill-rule="evenodd" clip-rule="evenodd" d="M17.7754 19.2217L18.1304 18.1709L18.4853 19.2217L19.5361 19.5767L18.4853 19.9316L18.1304 20.9824L17.7754 19.9316L16.7246 19.5767L17.7754 19.2217Z" fill="white"/>
<path id="Fill 22" fill-rule="evenodd" clip-rule="evenodd" d="M140.01 129.799L140.669 127.846L141.329 129.799L143.282 130.459L141.329 131.119L140.669 133.072L140.01 131.119L138.057 130.459L140.01 129.799Z" fill="white"/>
<path id="Fill 23" fill-rule="evenodd" clip-rule="evenodd" d="M129.556 116.615L130.216 114.662L130.876 116.615L132.829 117.275L130.876 117.934L130.216 119.887L129.556 117.934L127.603 117.275L129.556 116.615Z" fill="white"/>
<path id="Fill 24" fill-rule="evenodd" clip-rule="evenodd" d="M108.153 46.0898L108.813 44.1367L109.473 46.0898L111.427 46.7499L109.473 47.4093L108.813 49.3624L108.153 47.4093L106.2 46.7499L108.153 46.0898Z" fill="white"/>
<path id="Fill 25" fill-rule="evenodd" clip-rule="evenodd" d="M137.117 69.0645L137.777 67.1113L138.437 69.0645L140.39 69.7238L138.437 70.3839L137.777 72.337L137.117 70.3839L135.164 69.7238L137.117 69.0645Z" fill="white"/>
<path id="Fill 26" fill-rule="evenodd" clip-rule="evenodd" d="M143.804 26.229L144.464 24.2759L145.124 26.229L147.077 26.8883L145.124 27.5484L144.464 29.5015L143.804 27.5484L141.851 26.8883L143.804 26.229Z" fill="white"/>
<path id="Fill 27" fill-rule="evenodd" clip-rule="evenodd" d="M124.004 92.5588L124.663 90.6064L125.324 92.5588L127.276 93.2189L125.324 93.879L124.663 95.8321L124.004 93.879L122.051 93.2189L124.004 92.5588Z" fill="white"/>
<path id="Fill 28" fill-rule="evenodd" clip-rule="evenodd" d="M111.825 52.8814L112.18 51.8306L112.536 52.8814L113.586 53.2363L112.536 53.5912L112.18 54.6421L111.825 53.5912L110.774 53.2363L111.825 52.8814Z" fill="white"/>
<path id="Fill 29" fill-rule="evenodd" clip-rule="evenodd" d="M104.895 80.6016L105.25 79.5508L105.604 80.6016L106.655 80.9565L105.604 81.3115L105.25 82.3623L104.895 81.3115L103.844 80.9565L104.895 80.6016Z" fill="white"/>
<path id="Fill 30" fill-rule="evenodd" clip-rule="evenodd" d="M29.0801 54.3111L29.4351 53.2603L29.79 54.3111L30.8401 54.666L29.79 55.0209L29.4351 56.0718L29.0801 55.0209L28.0293 54.666L29.0801 54.3111Z" fill="white"/>
<path id="Fill 31" fill-rule="evenodd" clip-rule="evenodd" d="M136.574 117.232L136.929 116.181L137.285 117.232L138.335 117.586L137.285 117.941L136.929 118.992L136.574 117.941L135.523 117.586L136.574 117.232Z" fill="white"/>
<path id="Fill 32" fill-rule="evenodd" clip-rule="evenodd" d="M113.805 41.002L114.159 39.9512L114.515 41.002L115.565 41.3569L114.515 41.7118L114.159 42.7627L113.805 41.7118L112.754 41.3569L113.805 41.002Z" fill="white"/>
<path id="Fill 33" fill-rule="evenodd" clip-rule="evenodd" d="M132.615 123.172L132.97 122.121L133.325 123.172L134.375 123.527L133.325 123.882L132.97 124.933L132.615 123.882L131.564 123.527L132.615 123.172Z" fill="white"/>
</g>
</g>
<g id="LogoLetters">
<path id="Fill 1" fill-rule="evenodd" clip-rule="evenodd" d="M34.8818 182.529H57.5276V189.395H42.3182V196.26H56.3838V203.126H42.3182V216.286H34.8818V182.529Z" fill="white"/>
<path id="Fill 2" fill-rule="evenodd" clip-rule="evenodd" d="M62.0576 216.286H69.2093V180.241H62.0576V216.286Z" fill="white"/>
<path id="Fill 3" fill-rule="evenodd" clip-rule="evenodd" d="M74.4556 216.286H81.6073V193.114H74.4556V216.286ZM73.8818 185.819C73.8818 184.674 74.288 183.697 75.0981 182.887C75.9081 182.076 76.8873 181.672 78.0318 181.672C79.1756 181.672 80.1525 182.076 80.9626 182.887C81.7719 183.697 82.1781 184.674 82.1781 185.819C82.1781 186.963 81.7719 187.94 80.9626 188.753C80.1525 189.562 79.1756 189.968 78.0318 189.968C76.8873 189.968 75.9081 189.562 75.0981 188.753C74.288 187.94 73.8818 186.963 73.8818 185.819Z" fill="white"/>
<path id="Fill 5" fill-rule="evenodd" clip-rule="evenodd" d="M93.0467 204.557C93.0467 205.319 93.1894 206.043 93.4763 206.726C93.7632 207.411 94.1664 208.013 94.6925 208.539C95.2179 209.062 95.8209 209.484 96.5029 209.802C97.1879 210.118 97.9416 210.278 98.7671 210.278C99.564 210.278 100.31 210.118 101.011 209.802C101.71 209.484 102.32 209.062 102.846 208.539C103.371 208.013 103.775 207.411 104.062 206.726C104.348 206.043 104.492 205.319 104.492 204.557C104.492 203.794 104.348 203.073 104.062 202.388C103.775 201.706 103.371 201.1 102.846 200.577C102.32 200.051 101.71 199.63 101.011 199.313C100.31 198.995 99.564 198.836 98.7671 198.836C97.9416 198.836 97.1879 198.995 96.5029 199.313C95.8209 199.63 95.2179 200.051 94.6925 200.577C94.1664 201.1 93.7632 201.706 93.4763 202.388C93.1894 203.073 93.0467 203.794 93.0467 204.557ZM111.071 214.332C111.071 218.718 109.966 222.047 107.757 224.319C105.546 226.592 102.185 227.728 97.6709 227.728C95.6058 227.728 93.5722 227.498 91.57 227.038C89.5656 226.576 87.7237 225.678 86.0377 224.344L89.9959 218.431C91.109 219.352 92.2762 220.085 93.5004 220.624C94.724 221.165 96.0675 221.436 97.5304 221.436C99.7235 221.436 101.335 220.903 102.367 219.838C103.4 218.773 103.917 217.414 103.917 215.76V213.52H103.823C102.997 214.634 101.972 215.42 100.748 215.88C99.5245 216.342 98.3719 216.573 97.2918 216.573C95.5736 216.573 94.0156 216.278 92.6186 215.691C91.2202 215.102 90.0193 214.276 89.019 213.212C88.0179 212.147 87.2452 210.883 86.7066 209.42C86.165 207.957 85.8965 206.354 85.8965 204.604C85.8965 203.078 86.1409 201.586 86.6349 200.123C87.1259 198.66 87.8269 197.373 88.7321 196.261C89.6381 195.148 90.7424 194.25 92.0457 193.568C93.349 192.883 94.8279 192.541 96.4788 192.541C97.496 192.541 98.4283 192.655 99.2691 192.875C100.111 193.099 100.867 193.385 101.534 193.733C102.204 194.083 102.774 194.474 103.251 194.901C103.727 195.331 104.109 195.754 104.396 196.165H104.492V193.114H111.071V214.332Z" fill="white"/>
<path id="Fill 6" fill-rule="evenodd" clip-rule="evenodd" d="M123.944 180.241V196.261H124.04C124.196 195.817 124.467 195.371 124.849 194.925C125.232 194.482 125.691 194.084 126.233 193.733C126.771 193.385 127.406 193.099 128.138 192.875C128.869 192.655 129.665 192.541 130.522 192.541C132.334 192.541 133.796 192.82 134.908 193.377C136.021 193.932 136.889 194.705 137.507 195.689C138.126 196.675 138.549 197.835 138.772 199.17C138.994 200.505 139.106 201.952 139.106 203.508V216.286H131.954V204.939C131.954 204.27 131.93 203.58 131.882 202.866C131.834 202.149 131.691 201.491 131.453 200.885C131.213 200.283 130.85 199.789 130.356 199.409C129.862 199.027 129.155 198.836 128.234 198.836C127.314 198.836 126.564 199.003 125.994 199.337C125.42 199.669 124.985 200.115 124.682 200.67C124.38 201.227 124.18 201.857 124.087 202.555C123.991 203.253 123.944 203.986 123.944 204.748V216.286H116.792V180.241H123.944Z" fill="white"/>
<path id="Fill 7" fill-rule="evenodd" clip-rule="evenodd" d="M159.938 198.836H153.646V206.559C153.646 207.196 153.675 207.774 153.742 208.301C153.803 208.823 153.946 209.278 154.169 209.659C154.392 210.039 154.735 210.333 155.194 210.541C155.655 210.748 156.266 210.852 157.031 210.852C157.411 210.852 157.912 210.812 158.531 210.732C159.153 210.653 159.619 210.469 159.938 210.183V216.142C159.145 216.429 158.318 216.62 157.459 216.716C156.601 216.811 155.759 216.86 154.934 216.86C153.724 216.86 152.611 216.732 151.594 216.477C150.577 216.222 149.688 215.816 148.926 215.261C148.161 214.706 147.566 213.981 147.137 213.092C146.709 212.203 146.494 211.122 146.494 209.85V198.836H141.917V193.115H146.494V186.249H153.646V193.115H159.938V198.836Z" fill="white"/>
<path id="Fill 8" fill-rule="evenodd" clip-rule="evenodd" d="M29.1498 196.253C29.1498 197.62 28.7144 198.708 27.8414 199.518C26.9699 200.328 25.9058 200.734 24.6501 200.734C23.8934 200.734 23.1529 200.638 22.4204 200.45C21.69 200.261 21.0578 200.073 20.5243 199.885C20.2719 200.057 19.903 200.434 19.4171 201.015C18.929 201.597 18.3795 202.305 17.7655 203.14C18.3319 205.545 18.7856 207.254 19.131 208.269C19.4757 209.283 19.805 210.307 20.1182 211.346C20.3838 212.173 20.7797 212.819 21.2971 213.286C21.8152 213.753 22.6326 213.987 23.75 213.987C24.1591 213.987 24.6684 213.91 25.2824 213.751C25.8956 213.594 26.3998 213.437 26.792 213.281L26.2747 215.415C24.7189 216.079 23.357 216.562 22.1942 216.862C21.0314 217.162 19.996 217.314 19.0827 217.314C18.4248 217.314 17.7713 217.25 17.1259 217.125C16.4834 216.997 15.8943 216.772 15.3609 216.44C14.7762 216.095 14.2859 215.662 13.8848 215.144C13.4838 214.624 13.1443 213.902 12.8596 212.973C12.6708 212.392 12.4959 211.733 12.3393 210.992C12.1805 210.254 12.0239 209.601 11.8644 209.036C11.4078 209.71 11.0785 210.214 10.8736 210.544C10.6694 210.875 10.3701 211.338 9.97713 211.935C8.73456 213.838 7.65664 215.195 6.74631 216.005C5.83304 216.814 4.74195 217.218 3.46719 217.218C2.50855 217.218 1.69115 216.896 1.01425 216.252C0.339547 215.606 0 214.765 0 213.729C0 212.331 0.438338 211.226 1.31135 210.414C2.18437 209.604 3.25204 209.2 4.51071 209.2C5.26664 209.2 5.99184 209.29 6.68484 209.471C7.37784 209.652 8.03132 209.853 8.64455 210.074C8.88019 209.885 9.24681 209.513 9.74296 208.964C10.2398 208.414 10.7792 207.729 11.3624 206.912C10.8399 204.807 10.4125 203.219 10.0781 202.149C9.74588 201.079 9.40634 200.017 9.05581 198.963C8.77408 198.125 8.36574 197.473 7.82861 197.012C7.29588 196.553 6.49384 196.322 5.42397 196.322C4.95417 196.322 4.42582 196.406 3.84406 196.571C3.26302 196.736 2.77419 196.89 2.38122 197.031L2.90152 194.896C4.31459 194.265 5.65522 193.789 6.91828 193.473C8.18499 193.157 9.24169 192.998 10.0906 192.998C10.8611 192.998 11.519 193.053 12.0686 193.162C12.6211 193.274 13.2021 193.508 13.8161 193.872C14.3781 194.216 14.8691 194.652 15.2869 195.18C15.7033 195.705 16.0458 196.425 16.3136 197.336C16.5054 197.965 16.6803 198.618 16.8398 199.295C16.9993 199.972 17.134 200.553 17.2452 201.039C17.5752 200.537 17.917 200.017 18.2704 199.484C18.6231 198.95 18.9261 198.477 19.1786 198.068C20.3889 196.165 21.4727 194.8 22.4306 193.978C23.3892 193.151 24.4745 192.737 25.6856 192.737C26.6757 192.737 27.4989 193.064 28.1597 193.717C28.8213 194.371 29.1498 195.215 29.1498 196.253Z" fill="white"/>
</g>
<path id="LogoShip" fill-rule="evenodd" clip-rule="evenodd" d="M99.0991 102.09L79.9725 92.4331L61.0215 102.09L79.9432 61.6631L99.0991 102.09Z" fill="white"/>
</g>
</svg>

<svg xmlns="http://www.w3.org/2000/svg" width="160" height="228" fill="none" viewBox="0 0 160 228">
    <path fill="#1B1B1B" d="M3 2.389H157V154.389H3z"/>
    <path fill="#49FF5E" fill-rule="evenodd" d="M156.398 151.649c-33.111-.582-61.142-22.316-71.134-52.24l-5.26-2.656-5.356 2.729c-10.014 29.887-38.024 51.585-71.108 52.167V3.484c35.648.628 65.407 25.772 73.108 59.259l.63-1.348 2.674-5.713 2.7 5.7.64 1.35c7.705-33.481 37.461-58.62 73.106-59.248V151.65zm-45.784.035c-2.439-1.743-8.446-6.553-14.409-15.36-1.055-1.56-2.14-3.299-3.223-5.216h8.76c9.672 9.701 21.837 16.909 35.443 20.576h-26.571zM82.051 98.302c3.634 11.913 10.003 22.639 18.381 31.447H92.23c-4.14-7.67-8.138-18.034-10.18-31.447zm8.718 31.447h-9.78v-29.606c2.035 12.151 5.689 21.927 9.78 29.606zm-9.78 21.935v-20.576H91.52c6.192 11.112 13.149 17.621 16.865 20.576H80.988zm-2.04-21.935h-9.703c3.901-7.381 7.625-17.122 9.703-29.505v29.505zm0 21.935H51.604c3.003-2.355 8.075-6.968 13.206-14.528 1.21-1.785 2.46-3.801 3.701-6.048H78.95v20.576zm-19.442-21.935c8.365-8.797 14.729-19.507 18.365-31.401-2.001 13.09-5.907 23.421-10.25 31.401h-8.115zm-36.755 21.935c13.606-3.667 25.771-10.875 35.443-20.576h8.68c-6.93 12.179-14.709 18.519-17.56 20.576H22.751zM49.325 3.45c2.44 1.744 8.446 6.554 14.407 15.36 1.056 1.56 2.141 3.299 3.224 5.216h-8.76C48.522 14.325 36.357 7.116 22.751 3.45h26.573zm28.561 53.382c-3.634-11.913-10.003-22.639-18.38-31.447h8.202c4.14 7.67 8.138 18.034 10.178 31.447zm-8.718-31.447h10.12v31.63c-1.953-13.108-5.8-23.525-10.12-31.63zM79.288 3.45v20.576H68.418C62.225 12.913 55.267 6.405 51.553 3.45h27.736zm1.36 21.935h10.044c-4.125 7.802-8.051 18.243-10.044 31.654V25.385zm0-21.935h27.686c-3.002 2.356-8.076 6.967-13.207 14.528-1.21 1.784-2.46 3.801-3.701 6.048H80.647V3.45zm19.784 21.935c-8.367 8.797-14.73 19.507-18.367 31.401 2.002-13.09 5.908-23.421 10.25-31.4h8.117zM137.185 3.45c-13.606 3.666-25.771 10.875-35.443 20.576h-8.68c6.93-12.179 14.709-18.519 17.561-20.576h26.562zM.821 154.402h158.294V.732H.821v153.67z" clip-rule="evenodd"/>
    <path fill="#fff" fill-rule="evenodd" d="M11.3 77.615l.66-1.952.66 1.953 1.953.66-1.953.66-.66 1.952-.66-1.952-1.953-.66 1.953-.66zM38.548 104.616l.66-1.953.66 1.953 1.952.66-1.953.66-.66 1.953-.66-1.953-1.952-.66 1.953-.66zM51.044 73.002l.66-1.952.66 1.952 1.953.66-1.953.66-.66 1.953-.66-1.953-1.953-.66 1.953-.66zM21.903 22.85l.66-1.952.66 1.953 1.954.66-1.953.66-.66 1.952-.66-1.952-1.954-.66 1.953-.66zM22.22 132.765l.66-1.953.66 1.953 1.952.66-1.952.659-.66 1.953-.66-1.953-1.953-.659 1.953-.66zM28.665 101.392l.354-1.051.356 1.051 1.05.355-1.05.354-.356 1.051-.354-1.051-1.05-.354 1.05-.355zM47.475 78.622l.355-1.051.355 1.05 1.05.356-1.05.355-.355 1.05-.355-1.05-1.051-.355 1.05-.355zM31.636 50.902l.354-1.05.356 1.05 1.05.355-1.05.355-.356 1.05-.354-1.05-1.051-.355 1.05-.355zM139.545 30.111l.355-1.05.356 1.05 1.05.355-1.05.355-.356 1.051-.355-1.05-1.051-.356 1.051-.355zM51.791 38.534l.355-1.05.356 1.05 1.05.355-1.05.355-.356 1.05-.355-1.05-1.05-.355 1.05-.355zM17.775 19.222l.355-1.051.355 1.05 1.051.356-1.05.355-.356 1.05-.355-1.05-1.05-.355 1.05-.355zM140.01 129.799l.659-1.953.66 1.953 1.953.66-1.953.66-.66 1.953-.659-1.953-1.953-.66 1.953-.66zM129.556 116.615l.66-1.953.66 1.953 1.953.66-1.953.659-.66 1.953-.66-1.953-1.953-.659 1.953-.66zM108.153 46.09l.66-1.953.66 1.953 1.954.66-1.954.66-.66 1.952-.66-1.953-1.953-.66 1.953-.66zM137.117 69.064l.66-1.953.66 1.953 1.953.66-1.953.66-.66 1.953-.66-1.953-1.953-.66 1.953-.66zM143.804 26.229l.66-1.953.66 1.953 1.953.66-1.953.66-.66 1.953-.66-1.954-1.953-.66 1.953-.659zM124.004 92.559l.659-1.953.661 1.953 1.952.66-1.952.66-.661 1.953-.659-1.953-1.953-.66 1.953-.66zM111.825 52.881l.355-1.05.356 1.05 1.05.355-1.05.355-.356 1.051-.355-1.05-1.051-.356 1.051-.355zM104.895 80.602l.355-1.051.354 1.05 1.051.356-1.051.355-.354 1.05-.355-1.05-1.051-.355 1.051-.355zM29.08 54.311l.355-1.05.355 1.05 1.05.355-1.05.355-.355 1.05-.355-1.05-1.05-.355 1.05-.355zM136.574 117.232l.355-1.051.356 1.051 1.05.354-1.05.355-.356 1.051-.355-1.051-1.051-.355 1.051-.354zM113.805 41.002l.354-1.05.356 1.05 1.05.355-1.05.355-.356 1.05-.354-1.05-1.051-.355 1.051-.355zM132.615 123.172l.355-1.051.355 1.051 1.05.355-1.05.355-.355 1.051-.355-1.051-1.051-.355 1.051-.355zM34.882 182.529h22.646v6.866h-15.21v6.865h14.066v6.866H42.318v13.16h-7.436v-33.757zM62.058 216.286h7.151v-36.045h-7.151v36.045zM74.456 216.286h7.151v-23.172h-7.151v23.172zm-.574-30.467c0-1.145.406-2.122 1.216-2.932.81-.811 1.79-1.215 2.934-1.215 1.144 0 2.12.404 2.93 1.215.81.81 1.216 1.787 1.216 2.932 0 1.144-.406 2.121-1.215 2.934-.81.809-1.787 1.215-2.931 1.215-1.145 0-2.124-.406-2.934-1.215-.81-.813-1.216-1.79-1.216-2.934zM93.047 204.557c0 .762.142 1.486.43 2.169.286.685.69 1.287 1.215 1.813.526.523 1.129.945 1.81 1.263.686.316 1.44.476 2.265.476.797 0 1.543-.16 2.244-.476.699-.318 1.309-.74 1.835-1.263.525-.526.929-1.128 1.216-1.813.286-.683.43-1.407.43-2.169 0-.763-.144-1.484-.43-2.169-.287-.682-.691-1.288-1.216-1.811-.526-.526-1.136-.947-1.835-1.264-.701-.318-1.447-.477-2.244-.477-.825 0-1.58.159-2.264.477-.682.317-1.285.738-1.81 1.264-.527.523-.93 1.129-1.217 1.811-.287.685-.43 1.406-.43 2.169zm18.024 9.775c0 4.386-1.105 7.715-3.314 9.987-2.211 2.273-5.572 3.409-10.086 3.409-2.065 0-4.099-.23-6.101-.69-2.004-.462-3.846-1.36-5.532-2.694l3.958-5.913c1.113.921 2.28 1.654 3.504 2.193 1.224.541 2.567.812 4.03.812 2.194 0 3.805-.533 4.837-1.598 1.033-1.065 1.55-2.424 1.55-4.078v-2.24h-.094c-.826 1.114-1.851 1.9-3.075 2.36-1.224.462-2.376.693-3.456.693-1.718 0-3.276-.295-4.673-.882-1.399-.589-2.6-1.415-3.6-2.479-1.001-1.065-1.774-2.329-2.312-3.792-.542-1.463-.81-3.066-.81-4.816 0-1.526.244-3.018.738-4.481.49-1.463 1.192-2.75 2.097-3.862.906-1.113 2.01-2.011 3.314-2.693 1.303-.685 2.782-1.027 4.433-1.027 1.017 0 1.95.114 2.79.334.842.224 1.598.51 2.265.858.67.35 1.24.741 1.717 1.168.476.43.858.853 1.145 1.264h.096v-3.051h6.579v21.218zM123.944 180.241v16.02h.096c.156-.444.427-.89.809-1.336.383-.443.842-.841 1.384-1.192.538-.348 1.173-.634 1.905-.858.731-.22 1.527-.334 2.384-.334 1.812 0 3.274.279 4.386.836 1.113.555 1.981 1.328 2.599 2.312.619.986 1.042 2.146 1.265 3.481.222 1.335.334 2.782.334 4.338v12.778h-7.152v-11.347c0-.669-.024-1.359-.072-2.073-.048-.717-.191-1.375-.429-1.981-.24-.602-.603-1.096-1.097-1.476-.494-.382-1.201-.573-2.122-.573-.92 0-1.67.167-2.24.501-.574.332-1.009.778-1.312 1.333-.302.557-.502 1.187-.595 1.885-.096.698-.143 1.431-.143 2.193v11.538h-7.152v-36.045h7.152zM159.938 198.836h-6.292v7.723c0 .637.029 1.215.096 1.742.061.522.204.977.427 1.358.223.38.566.674 1.025.882.461.207 1.072.311 1.837.311.38 0 .881-.04 1.5-.12.622-.079 1.088-.263 1.407-.549v5.959c-.793.287-1.62.478-2.479.574-.858.095-1.7.144-2.525.144-1.21 0-2.323-.128-3.34-.383s-1.906-.661-2.668-1.216c-.765-.555-1.36-1.28-1.789-2.169-.428-.889-.643-1.97-.643-3.242v-11.014h-4.577v-5.721h4.577v-6.866h7.152v6.866h6.292v5.721zM29.15 196.253c0 1.367-.436 2.455-1.309 3.265-.871.81-1.935 1.216-3.19 1.216-.758 0-1.498-.096-2.23-.284-.731-.189-1.363-.377-1.897-.565-.252.172-.621.549-1.107 1.13-.488.582-1.038 1.29-1.652 2.125.567 2.405 1.02 4.114 1.366 5.129.345 1.014.674 2.038.987 3.077.266.827.662 1.473 1.18 1.94.517.467 1.335.701 2.452.701.41 0 .918-.077 1.532-.236.614-.157 1.118-.314 1.51-.47l-.517 2.134c-1.556.664-2.918 1.147-4.08 1.447-1.164.3-2.199.452-3.112.452-.658 0-1.312-.064-1.957-.189-.643-.128-1.232-.353-1.765-.685-.585-.345-1.075-.778-1.476-1.296-.401-.52-.74-1.242-1.025-2.171-.19-.581-.364-1.24-.52-1.981-.16-.738-.316-1.391-.476-1.956-.456.674-.786 1.178-.99 1.508-.205.331-.504.794-.897 1.391-1.242 1.903-2.32 3.26-3.23 4.07-.914.809-2.005 1.213-3.28 1.213-.958 0-1.776-.322-2.453-.966C.34 215.606 0 214.765 0 213.729c0-1.398.438-2.503 1.311-3.315.873-.81 1.941-1.214 3.2-1.214.756 0 1.48.09 2.174.271.693.181 1.346.382 1.96.603.235-.189.602-.561 1.098-1.11.497-.55 1.036-1.235 1.62-2.052-.523-2.105-.95-3.693-1.285-4.763-.332-1.07-.672-2.132-1.022-3.186-.282-.838-.69-1.49-1.227-1.951-.533-.459-1.335-.69-2.405-.69-.47 0-.998.084-1.58.249-.581.165-1.07.319-1.463.46l.52-2.135c1.414-.631 2.754-1.107 4.017-1.423 1.267-.316 2.324-.475 3.173-.475.77 0 1.428.055 1.978.164.552.112 1.133.346 1.747.71.562.344 1.053.78 1.47 1.308.417.525.76 1.245 1.028 2.156.191.629.366 1.282.526 1.959.16.677.294 1.258.405 1.744.33-.502.672-1.022 1.025-1.555.353-.534.656-1.007.909-1.416 1.21-1.903 2.294-3.268 3.252-4.09.958-.827 2.043-1.241 3.255-1.241.99 0 1.813.327 2.474.98.661.654.99 1.498.99 2.536zM99.1 102.09l-19.127-9.657-18.951 9.657 18.921-40.427L99.1 102.09z" clip-rule="evenodd"/>
</svg>
